X:1
T:Confitemini Domino
T:Confitemini Domino
T:Graduale in Rogationibus MH696
T:J Michael Haydn
T:Ps 118:1
T:BSB Mms 427 autograph
T:BSB Mms 427 autograph
T:BSB Mms 427 autograph
T:BSB Mms 427 autograph
T:BSB Mms 427 autograph
C:J Michael Haydn
Z:Ps 118:1
Z:BSB Mms 427 autograph
%%score [ ( 1 2 ) ( 3 4 ) ] 5
L:1/8
Q:1/4=120
M:3/4
K:F
V:1 treble nm="Voice"
V:2 treble 
V:3 bass nm="Voice"
V:4 bass 
V:5 bass nm="Pipe Organ"
V:1
"^[] Allegro" z2 f2 c2 | A2 F2 z2 | z2 c2 c2 | c3 d c2 | z2 c2 c2 | c6- | c3 d e f | e2 d2 d2 | %8
w: Al- le-|lu- ja|Con- fi-|te- mi- ni|con- fi-|te-|* * mi- ni|Do- * mi-|
 c2 z4 | f6- | f2 e2 d2 | c4 B2 | A2 z4 | d6- | d2 c2 B2 | B4 A2 | G2 z4 | E2 G2 c2 | e4 e2 | %19
w: no|quo-|* ni- am|bo- *|nus|quo-|* ni- am|bo- *|nus|quo- * ni-|am in|
 e4 e2 | e6 | e2 e2 e2 | f6- | f2 e2 d2 | c4 =B2 | c2 z4 |!p! A4 =B2 | c2 d2 e2 | A4 =B2 | c4 z2 | %30
w: sae- cu-|lum|mi- se- ri-|cor-|* di- a|e- *|jus|con- fi-|te- mi- ni|Do- mi-|no|
 =B3 B c2 | d3 d e2 | f4 F2 | F2 z4 |!f! E2 G2 c2 | e4 e2 | e4 e2 | e6 | e2 e2 e2 | f6- | %40
w: quo- ni- am|quo- ni- am|bo- *|nus|quo- * ni-|am in|sae- cu-|lum|mi- se- ri-|cor-|
 f2 e2 d2 | c4 =B2 | c2 z4 | z2 c2 G2 | E2 C2 z2 | A6 | A6 | A4 c2 | c6 | =B2 d2 f2 | f6 | %51
w: * di- a|e- *|jus.|Al- le-|lu- ja|Con-|fi-|te- mi-|ni|Do- * mi-|no|
 e2 g2 e2 | _B6 | A2 c2 _e2 | _e6 | d4 d2 | c4 d2 | c2 B2 B2 | B6 | A2 A2 A2 | B3 B B2 | =B6 | %62
w: quo- * ni-|am|bo- * *|nus:|quo- ni-|am in|sae- * cu-|lum|mi- se- ri-|cor- di- a|e-|
 c4 z2 | z6 | z2 c2 c2 | c3 d c2 | z2 c2 c2 | c6- | c3 d e f | e2 d2 d2 | c2 z4 | f6- | f2 e2 d2 | %73
w: jus.||Con- fi-|te- mi- ni|con- fi-|te-|* * mi- ni|Do- * mi-|no|quo-|* ni- am|
 c4 B2 | A2 z4 | d6- | d2 c2 B2 | B4 A2 | G2 z4 | F2 A2 .c2 | f4 f2 | f4 f2 | f6 | A2 A2 A2 | %84
w: bo- *|nus|quo-|* ni- am|bo- *|nus:|quo- * ni-|am in|sae- cu-|lum|mi- se- ri-|
 d4 c2 | B2 c2 d2 | F4{A} G2 | F2 z4 |!p! d4 e2 | f3 c c2 | d2 c2 =B2 | c2 _B2 A2 | G3 G F2 | %93
w: cor- *|* di- a|e- *|jus|con- fi-|te- mi- ni|Do- * *|* mi- ni|quo- ni- am|
 B3 B A2 | d4 G2 | G2 z4 |!f! F2 A2 c2 | f4 f2 | f4 f2 | f6 | A2 A2 A2 | d4 c2 | B2 c2 d2 | %103
w: quo- ni- am|bo- *|nus|quo- * ni-|am in|sae- cu-|lum|mi- se- ri-|cor- *|* di- a|
 F4{A} G2 | F2 z2 A2 | A4 A2 | A2 z2 A2 | B4 B2 | B4 !fermata!z2 | A2 c2 f2 | f6- | f2 f2 f2 | %112
w: e- *|jus in|sae- cu-|lum in|sae- cu-|lum|mi- se- ri-|cor-|* di- a|
 f2 =e2 d2- | d2 c2 B2 | !fermata!c6 |] %115
w: e- * *||jus.|
V:2
 z6 | z2 F2 E2 | F2 F2 z2 | z2 F2 A2 | G3/2 F/ E2 z2 | z2 G2 G2 | C2 A3/2 A/ F2 | F4 F2 | F2 x4 | %9
w: |Al- le-|lu- ja|Con- fi-|te- mi- ni|con- fi-|te- * mi- ni|Do- mi-|no|
w: |||||||||
 F6- | F3 F B2 | A4 G2 | F2 x4 | B6- | B2 A2 G2 | G4 F2 | E2 x4 | z6 | G3/2 G/ G2 G2 | %19
w: |||||||||quo- ni- am in|
w: ||||||||||
 G3/2 G/ G2 z2 | A3/2 A/ A2 A2 | E3/2 E/ E2 z2 | A2 A2 A2 | A3 A A2 | G6 | G2 x4 | F4 D2 | %27
w: sae- cu- lum|quo- ni- am in|sae- cu- lum|mi- se- ri-|cor di- ae|e-|jus|[con- fi-|
w: |||||||con- fi-|
 E2 F2 G2- | G2 F2 D2 | E2 F2 G2 | G3 G G2 | =B3 B c2 | d4 D2 | D2 x4 | z6 | G3/2 G/ G2 G2 | %36
w: te- mi- ni|_ Do- *|* mi- no]||||||quo- ni- am in|
w: te- mi- ni|Do- * *|* mi- no|||||||
 G3/2 G/ G2 z2 | A3/2 A/ A2 A2 | E3/2 E/ E2 z2 | A2 A2 A2 | A3 A A2 | G6 | G2 G2 =B2 | c2 G2 z2 | %44
w: sae- cu- lum|quo- ni- am in|sae- cu- lum|mi- se- ri-|cor- di- a|e-|jus. Al- le-|lu- ja|
w: ||||||||
 z2 E2 E2 | E3 E E2 | z2 G2 G2 | ^F4 F2 | A6 | G4 G2 | G6 | G2 E2 _B2 | G6 | F2 A4 | c6 | %55
w: Con- fi-|te- mi- ni|con- fi-|te- mi-|ni|||||||
w: |||||||||||
 F2 B2 G2 | E2 A4 | G4 G2 | G6 | F2 F2 F2 | F3 F F2 | F6 | E4 x2 | x6 | z6 | z2 F2 A2 | %66
w: ||||||||||Con- fi-|
w: |||||||||||
 G3/2 F/ E2 z2 | z2 G2 G2 | C2 A3/2 A/ F2 | F4 F2 | F2 x4 | F6- | F3 F B2 | A4 G2 | F2 x4 | B6- | %76
w: te- mi- ni|con- fi-|te- * mi- ni||||||||
w: ||||||||||
 B2 A2 G2 | G4 F2 | E2 x4 | z6 | A3/2 A/ F2 A2 | A3/2 A/ A2 z2 | A3/2 A/ A2 F2 | F3/2 F/ F2 z2 | %84
w: ||||quo- ni- am in|sae- cu- lum|quo- ni- am in|sae- cu- lum|
w: ||||||||
 F2 F2 F2 | F3 F F2 | C4 E2 | F2 x4 | B4 G2 | A3 A A2 | B2 A2 ^G2 | A2 E2 F2 | D3 D C2 | E3 E F2 | %94
w: mi- se- ri-|cor- di- a|e- *|jus|||||||
w: ||||||||||
 F6 | E2 x4 | z6 | A3/2 A/ F2 A2 | A3/2 A/ A2 z2 | A3/2 A/ A2 F2 | F3/2 F/ F2 z2 | F2 F2 F2 | %102
w: |||quo- ni- am in|sae- cu- lum|quo- ni- am in|sae- cu- lum|mi- se- ri-|
w: ||||||||
 F3 F F2 | C4 E2 | F2 z2 F2 | E4 E2 | F2 z2 F2 | E4 E2 | E4 x2 | z6 | F2 F2 B2 | c3 c c2 | F6- | %113
w: cor- di- a|e- *|||||||mi- se- ri-|cor- di- a||
w: |||||||||||
 F6 | F6 |] %115
w: ||
w: ||
V:3
 z6 | z2 A,2 G,2 | C2 A,2 z2 | z2 C2 C2 | C3/2 G,/ G,2 z2 | z2 E2 E2 | F3/2 C/ C4 | C2 B,2 B,2 | %8
w: ||||||||
 A,2 z4 | C6 | D2 C2 D2 | E6 | F2 z4 | z2 B,2 C2 | D2 E2 F2 | C4 D2 | G,2 z4 | z6 | C3/2 C/ C2 C2 | %19
w: |||||quo- *|* ni- am|||||
 C3/2 C/ C2 z2 | C3/2 C/ C2 C2 | C3/2 C/ C2 z2 | D2 D2 D2 | D2 ^C2 D2 | E4 F2 | E2 z4 |!p! C4 C2 | %27
w: ||||||||
 C3 C C2 | C6- | C2 D2 E2 | F3 F E2 | D3 D C2 | =B,6 | =B,2 z4 | z6 |!f! C3/2 C/ C2 C2 | %36
w: |||||||||
 C3/2 C/ C2 z2 | C3/2 C/ C2 C2 | C3/2 C/ C2 z2 | D2 D2 D2 | D2 ^C2 D2 | E4 F2 | E2 E2 D2 | %43
w: |||||||
 C2 E2 z2 | z2 G,2 G,2 | ^C3 C C2 | z2 E2 E2 | D4 D2 | D6 | D2 =B,2 B,2 | D6 | =C4 C2 | C6 | %53
w: ||||||||||
 C2 F4 | F6 | z2 B,3 B, | C2 F4 | D4 D2 | C6 | C2 C2 C2 | B,3 F, F,2 | _A,2 G,4 | G,4 z2 | z6 | %64
w: |||||||||||
 z6 | z2 C2 C2 | C3/2 G,/ G,2 z2 | z2 E2 E2 | F3/2 C/ C4 | C2 B,2 B,2 | A,2 z4 | C6 | D2 C2 D2 | %73
w: |||||||||
 E6 | F2 z4 | z2 B,2 C2 | D2 E2 F2 | E4 D2 | C2 z4 | z6 | C3/2 C/ C2 F2 | C3/2 C/ C2 z2 | %82
w: |||||||||
 F3/2 F/ D2 D2 | D3/2 D/ D2 z2 | G,2 G,2 G,2 | G,3 G, G,2 | A,4 B,2 | A,2 z4 |!p! F,4 F,2 | %89
w: |||||||
 F,3 F, F,2 | F,6- | F,2 G,2 A,2 | B,3 B, A,2 | G,3 G, F,2 | B,2 =B,4 | C2 z4 | z6 | %97
w: ||||||||
!f! C3/2 C/ C2 F2 | C3/2 C/ C2 z2 | F3/2 F/ F2 D2 | D3/2 D/ D2 z2 | D2 D2 D2 | D3 D D2 | A,4 B,2 | %104
w: |||||||
 A,2 z2 D2 | ^C4 C2 | D2 z2 F,2 | G,4 G,2 | G,4 !fermata!z2 | z6 | B,2 B,2 B,2 | _E3 E E2 | %112
w: ||||||||
 D2 C2 B,2- | B,2 A,2 G,2 | !fermata!A,6 |] %115
w: |||
V:4
 x6 | x2 F,2 C,2 | A,,2 F,,2 x2 | x2 A,2 F,2 | E,3/2 D,/ C,2 x2 | x2 B,,2 B,2 | %6
w: ||||||
 A,3/2 F,/ F,2 A,,2 | B,,3 C, D, B,, | F,2 x4 | A,,6 | B,,3 B,, B,,2 | C,6 | D,2 x4 | %13
w: |||||||
 x2 G,,2 A,,2 | B,,2 C,2 D,2 | E,2 F,2 =B,,2 | C,2 x4 | x6 | C,3/2 C,/ E,2 G,2 | C3/2 C,/ C,2 x2 | %20
w: |||||||
 A,,3/2 A,,/ C,2 E,2 | A,3/2 A,,/ A,,2 x2 | D,2 F,2 A,2 | D,2 E,2 F,2 | G,6 | C,2 x4 | z6 | z6 | %28
w: ||||||||
 z6 | z6 | z6 | z6 | z6 | z6 | x6 | C,3/2 C,/ E,2 G,2 | C3/2 C,/ C,2 x2 | A,,3/2 A,,/ C,2 E,2 | %38
w: ||||||||||
 A,3/2 A,,/ A,,2 x2 | D,2 F,2 A,2 | D,2 E,2 F,2 | G,4 G,,2 | C,2 C2 G,2 | E,2 C,2 x2 | %44
w: ||||||
 x2 C,2 _B,,2 | A,,3 A,, A,,2 | x2 ^C,2 C,2 | D,2 =C2 A,2 | ^F,6 | G,2 =F,2 D,2 | =B,,6 | %51
w: |||||||
 C,2 _B,2 G,2 | E,6 | F,4 C2 | A,6 | B,2 G,2 =E,2 | A,2 F,2 D,2 | G,4 F,2 | E,6 | F,2 F,2 F,2 | %60
w: |||||||||
 D,3 D, D,2 | _D,6 | C,4 x2 | x6 | x6 | x2 A,2 F,2 | E,3/2 D,/ C,2 x2 | x2 B,,2 B,2 | %68
w: ||||||||
 A,3/2 F,/ F,2 A,,2 | B,,3 C, D,B,, | F,2 x4 | A,,6 | B,,3 B,, B,,2 | C,6 | D,2 x4 | x2 G,,2 A,,2 | %76
w: ||||||||
 B,,2 C,2 D,2 | E,2 F,2 =B,,2 | C,2 x4 | x6 | F,3/2 F,/ A,,2 C,2 | F,3/2 F,/ F,2 x2 | %82
w: ||||||
 D,3/2 D,/ F,2 A,2 | D3/2 D,/ D,2 x2 | B,,2 B,,2 C,2 | D,2 C,2 B,,2 | C,6 | F,2 x4 | z6 | z6 | z6 | %91
w: |||||||||
 z6 | z6 | z6 | z6 | z6 | x6 | F,3/2 F,/ A,,2 C,2 | F,3/2 F,/ F,2 x2 | D,3/2 D,/ F,2 A,2 | %100
w: |||||||||
 D3/2 D,/ D,2 x2 | B,,2 B,,2 C,2 | D,2 C,2 B,,2 | C,6 | F,,2 z2 D,2 | A,,4 A,,2 | D,2 z2 D,2 | %107
w: |||||||
 C,4 C,2 | C,4 x2 | x6 | D,2 D,2 D,2 | A,,3 A,, A,,2 | B,,6 | F,6- | F,6 |] %115
w: |||||e-|ju-|s.|
V:5
 F,,2[K:treble] f2 c2 | A2[K:bass] F,2 C,2 | A,,2 F,,2[K:treble] c2 | c2[K:bass] A,2 F,2 | %4
 E,2 C,2[K:treble] c2 | c2[K:bass] B,,2 B,2 | A,2 F,2 A,,2 | B,,2 B,,C,D,B,, | F,2 F,G,A,F, | %9
 A,,2 A,2 A,,2 | B,,2 B,2 B,,2 | C,2 C2 C,2 | D,2 D2 D,2 | z2 G,,2 A,,2 | B,,2 C,2 D,2 | %15
 E,2 F,2 =B,,2 | C,2 CE,G,E, | C,2[K:treble] G2 c2 |[K:bass] C,2 E,2 G,2 | C2 C,2 z2 | %20
 A,,2 C,2 E,2 | A,2 A,,2 z2 | D,2 F,2 A,2 | D,2 E,2 F,2 | G,2 G,2 G,2 | C,2!p!"^Fl" C2 C2 | %26
 C2 C2 C2 | C2 C2 C2 | C2 C2 C2 | C2 D2 E2 | F2 F2 E2 | D2 D2 C2 | =B,2 B,2 B,2 | %33
 =B,2"^[Org]"!f! G,>F,E,>D, | C,2[K:treble] G2 c2 |[K:bass] C,2 E,2 G,2 | C2 C,2 z2 | %37
 A,,2 C,2 E,2 | A,2 A,,2 z2 | D,2 F,2 A,2 | D,2 E,2 F,2 | G,2 G,,2 G,,2 | C,2 C2 G,2 | %43
 E,2 C,2[K:treble] G2 | E2[K:bass] C,2 _B,,2 | A,,2 G,2 E,2 | ^C,2 A,,2 C,2 | D,2 =C2 A,2 | %48
 ^F,2 D,2 F,2 | G,2 =F,2 D,2 | =B,,2 G,,2 B,,2 | C,2 _B,2 G,2 | E,2 C,2 E,2 | F,2 _E2 C2 | %54
 A,2 F,2 A,2 | B,2 G,2 =E,2 | A,2 F,2 D,2 | G,,2 G,2 F,2 | E,2 C,2 E,2 | F,2 F,2 F,2 | %60
 D,2 D,2 D,2 | _D,2 D,2 D,2 | C,2 B,2 G,2 | E,2 C,2 E,2 | F,2[K:treble] c2 c2 | %65
 c2[K:bass] A,2 F,2 | E,2 C,2[K:treble] c2 | c2[K:bass] B,,2 B,2 | A,2 F,2 A,,2 | B,,2 B,,C,D,B,, | %70
 F,2 F,E,F,C, | A,,2 A,2 A,,2 | B,,2 B,2 B,,2 | C,2 C2 C,2 | D,2 D2 D,2 | z2 G,,2 A,,2 | %76
 B,,2 C,2 D,2 | E,2 F,2 =B,,2 | C,2 CE,G,_B,, | A,,2 F,,2 z2 | F,,2 A,,2 C,2 | F,2 F,,2 z2 | %82
 D,2 F,2 A,2 | D2 D,2 z2 | B,,2 B,,2 C,2 | D,2 C,2 B,,2 | C,2 C,2 C,2 | F,,2!p!"^Fl." F,2 F,2 | %88
 F,2 F,2 F,2 | F,2 F,2 F,2 | F,2 F,2 F,2 | F,2 G,2 A,2 | B,2 B,2 A,2 | G,2 G,2 F,2 | B,2 =B,4 | %95
 C2!f!"^[Org]" C,>D,E,>C, | F,2[K:treble] A2 c2 |[K:bass] F,,2 A,,2 C,2 | F,2 F,,2 z2 | %99
 D,2 F,2 A,2 | D2 D,2 z2 | B,,2 B,,2 C,2 | D,2 C,2 B,,2 | C,2 C,2 C,2 | F,,2 F,2 D,2 | %105
 A,,2 A,2 A,,2 | D,2 F,2 D,2 | C,2 G,2 E,2 | C,2 C2 !fermata!C,2 | F,2 A,2 F,2 | D,2 B,2 D,2 | %111
 A,,2 F,2 A,,2 | B,,6 | F,6 |"_S. 17 Aprilis 798""^115" !fermata!F,,6 |] %115

